svgs/sharp-regular/square-small.svg

<svg xmlns="http://www.w3.org/2000/svg" viewBox="0 0 320 512"><!--! Font Awesome Pro 6.6.0 by @fontawesome - https://fontawesome.com License - https://fontawesome.com/license (Commercial License) Copyright 2024 Fonticons, Inc. --><path d="M272 144l0 224L48 368l0-224 224 0zM48 96L0 96l0 48L0 368l0 48 48 0 224 0 48 0 0-48 0-224 0-48-48 0L48 96z"/></svg>

<svg xmlns="http://www.w3.org/2000/svg" viewBox="0 0 320 512"><!--! Font Awesome Pro 6.4.0 by @fontawesome - https://fontawesome.com License - https://fontawesome.com/license (Commercial License) Copyright 2023 Fonticons, Inc. --><path d="M272 144V368H48V144H272zM48 96H0v48V368v48H48 272h48V368 144 96H272 48z"/></svg>
